svg/600/outlined/format_letter_spacing_2-fill.svg

<svg xmlns="http://www.w3.org/2000/svg" width="48" height="48" viewBox="0 -960 960 960"><path d="M225.435-65.869 65.869-225.435l159.566-158.566 55.566 55.566-62.826 62.826H741.39l-62.391-62.826 57.131-55.566 158.566 158.566L735.13-65.869l-56.131-55.566 64.391-64.391H218.175l62.826 64.391-55.566 55.566Zm55.347-388.827 164-440h71.436l164 440h-75.349L565.26-568.218H392.348l-39.043 113.522h-72.523Zm127.566-167.131h143.043L481.87-824.609h-4l-69.522 202.782Z"/></svg>

<svg xmlns="http://www.w3.org/2000/svg" width="48" height="48" viewBox="0 -960 960 960"><path d="M225.43-65.87 65.87-225.43 225.43-384 281-328.43l-62.82 62.82h523.21L679-328.43 736.13-384 894.7-225.43 735.13-65.87 679-121.43l64.39-64.4H218.18l62.82 64.4-55.57 55.56Zm55.35-388.83 164-440h71.44l164 440h-75.35l-39.61-113.52H392.35L353.3-454.7h-72.52Zm127.57-167.13h143.04l-69.52-202.78h-4l-69.52 202.78Z"/></svg>
